icons/tokens/white/EUR.svg

<?xml version="1.0" standalone="no"?>
<!DOCTYPE svg PUBLIC "-//W3C//DTD SVG 20010904//EN"
 "http://www.w3.org/TR/2001/REC-SVG-20010904/DTD/svg10.dtd">
<svg version="1.0" xmlns="http://www.w3.org/2000/svg"
 width="128.000000pt" height="128.000000pt" viewBox="0 0 128.000000 128.000000"
 preserveAspectRatio="xMidYMid meet">

<g transform="translate(0.000000,128.000000) scale(0.100000,-0.100000)"
fill="#000000" stroke="none">
<path d="M501 1265 c-284 -62 -501 -332 -501 -625 0 -349 291 -640 640 -640
349 0 640 291 640 640 0 405 -382 711 -779 625z m226 -266 c51 -25 96 -76 112
-128 15 -51 14 -213 -1 -265 -17 -56 -84 -121 -140 -136 -90 -25 -182 11 -235
92 -26 38 -28 51 -31 152 -5 142 6 185 63 241 66 66 152 83 232 44z m121 -676
l3 -53 -210 0 -211 0 0 55 0 55 208 -2 207 -3 3 -52z"/>
</g>
</svg>

<?xml version="1.0" encoding="utf-8"?>
<!-- Generator: Adobe Illustrator 28.0.0, SVG Export Plug-In . SVG Version: 6.00 Build 0)  -->
<svg version="1.1" id="Layer_1" xmlns="http://www.w3.org/2000/svg" xmlns:xlink="http://www.w3.org/1999/xlink" x="0px" y="0px"
	 viewBox="0 0 128 128" style="enable-background:new 0 0 128 128;" xml:space="preserve">
<style type="text/css">
	.st0{fill:#FFFFFF;}
</style>
<g transform="translate(0.000000,128.000000) scale(0.100000,-0.100000)">
	<path class="st0" d="M501,1265C217,1203,0,933,0,640C0,291,291,0,640,0s640,291,640,640C1280,1045,898,1351,501,1265z M727,999
		c51-25,96-76,112-128c15-51,14-213-1-265c-17-56-84-121-140-136c-90-25-182,11-235,92c-26,38-28,51-31,152c-5,142,6,185,63,241
		C561,1021,647,1038,727,999z M848,323l3-53H641H430v55v55l208-2l207-3L848,323z"/>
</g>
</svg>
